X: 27650
T: Morag's Number Two
R: reel
M: 4/4
K: Eminor
D|:EBBA BEED|EFGA B2{EE}E2|EBBA BEEG|FEDF EDB,D|
EBBA BEED|EFGA B2B^c|dedB AcBA|GE{EF=E}D2 E2{EE}E2:|
|:EBEB BEGB|BEGA BEGB|ADFA dDcD|BDAD BAFA|
BEED EBBE|EBBA B2B^c|dedB AcBA|GE{EF=E}D2 E2{EE}E2:|

